dist/images/icons/icon3.svg

<svg width="66" height="65" viewBox="0 0 66 65" fill="none" xmlns="http://www.w3.org/2000/svg">
<g opacity="0.1">
<rect x="0.75" y="0.75" width="64.5" height="63" rx="9.75" fill="#D9D9D9"/>
<rect x="0.75" y="0.75" width="64.5" height="63" rx="9.75" fill="url(#paint0_linear_508_187)"/>
<rect x="0.75" y="0.75" width="64.5" height="63" rx="9.75" stroke="url(#paint1_linear_508_187)" stroke-width="1.5"/>
</g>
<path d="M24.4348 20V22.1739H20.9565L22.3413 28.6957H22.2609C21.6087 28.6957 21.1739 29.1304 21.1739 29.7826C21.1739 30.4348 21.6087 30.8696 22.2609 30.8696H22.3804L21.2739 38.4783H21.1739C20.5217 38.4783 20.087 38.913 20.087 39.5652C20.087 39.913 20.2174 40.1913 20.4304 40.3826L19 42.4989V45H32.1522V42.5L30.6783 40.3185C30.8638 40.1121 30.9633 39.8426 30.9565 39.5652C30.9565 38.913 30.5217 38.4783 29.8696 38.4783H29.75L28.575 30.8696H28.7826C29.4348 30.8696 29.8696 30.4348 29.8696 29.7826C29.8696 29.1304 29.4348 28.6957 28.7826 28.6957H28.7283L30.1957 22.1739H26.6087V20H24.4348ZM23.5652 24.3478H27.4783L26.5 28.6957H24.5435L23.5652 24.3478ZM36.3913 25.4348V32.3913L37.3696 33.3696L36.5315 38.4783H36.3913C35.7391 38.4783 35.3043 38.913 35.3043 39.5652C35.3043 39.913 35.4348 40.1913 35.6478 40.3826L34.2174 42.4989V45H47.3696V42.5L45.8957 40.3185C46.0812 40.1121 46.1807 39.8426 46.1739 39.5652C46.1739 38.913 45.7391 38.4783 45.087 38.4783H44.9467L44.1087 33.3696L45.087 32.3913V25.4348H42.913V27.6087H41.8261V25.4348H39.6522V27.6087H38.5652V25.4348H36.3913ZM38.5652 29.7826H42.913V31.5217L41.7174 32.7174L42.6957 38.4783H38.7826L39.7609 32.7174L38.5652 31.5217V29.7826ZM24.6522 30.8696H26.5L27.587 38.4783H23.5652L24.6522 30.8696ZM22.8043 40.6522H28.2391L29.6522 42.8261H21.3913L22.8043 40.6522ZM38.1304 40.6522H43.4565L44.8696 42.8261H36.6087L38.1304 40.6522Z" fill="#BAE9F1"/>
<defs>
<linearGradient id="paint0_linear_508_187" x1="33" y1="0" x2="52.1042" y2="87.4143" gradientUnits="userSpaceOnUse">
<stop stop-color="#2C4262"/>
<stop offset="1" stop-color="#202F45"/>
</linearGradient>
<linearGradient id="paint1_linear_508_187" x1="33" y1="0" x2="33" y2="64.5" gradientUnits="userSpaceOnUse">
<stop stop-color="white"/>
<stop offset="1" stop-color="white" stop-opacity="0"/>
</linearGradient>
</defs>
</svg>

<svg width="66" height="65" fill="none" xmlns="http://www.w3.org/2000/svg"><g opacity=".1"><rect x=".75" y=".75" width="64.5" height="63" rx="9.75" fill="#D9D9D9"/><rect x=".75" y=".75" width="64.5" height="63" rx="9.75" fill="url(#paint0_linear_508_187)"/><rect x=".75" y=".75" width="64.5" height="63" rx="9.75" stroke="url(#paint1_linear_508_187)" stroke-width="1.5"/></g><path d="M24.435 20v2.174h-3.479l1.385 6.522h-.08c-.652 0-1.087.434-1.087 1.087 0 .652.435 1.087 1.087 1.087h.12l-1.107 7.608h-.1c-.652 0-1.087.435-1.087 1.087 0 .348.13.626.343.818L19 42.499V45h13.152v-2.5l-1.474-2.181c.186-.207.285-.476.278-.754 0-.652-.434-1.087-1.086-1.087h-.12l-1.175-7.608h.208c.652 0 1.087-.435 1.087-1.087 0-.653-.435-1.087-1.087-1.087h-.055l1.468-6.522h-3.587V20h-2.174zm-.87 4.348h3.913l-.978 4.348h-1.956l-.979-4.348zm12.826 1.087v6.956l.979.979-.838 5.108h-.14c-.653 0-1.088.435-1.088 1.087 0 .348.13.626.344.818l-1.43 2.116V45H47.37v-2.5l-1.474-2.181a1.09 1.09 0 00.278-.754c0-.652-.435-1.087-1.087-1.087h-.14l-.838-5.108.978-.979v-6.956h-2.174v2.174h-1.087v-2.174h-2.174v2.174h-1.087v-2.174h-2.174zm2.174 4.348h4.348v1.739l-1.196 1.195.979 5.761h-3.913l.978-5.76-1.196-1.196v-1.74zM24.652 30.87H26.5l1.087 7.608h-4.022l1.087-7.608zm-1.848 9.782h5.435l1.413 2.174h-8.26l1.412-2.174zm15.326 0h5.326l1.414 2.174h-8.261l1.521-2.174z" fill="#BAE9F1"/><defs><linearGradient id="paint0_linear_508_187" x1="33" y1="0" x2="52.104" y2="87.414" gradientUnits="userSpaceOnUse"><stop stop-color="#2C4262"/><stop offset="1" stop-color="#202F45"/></linearGradient><linearGradient id="paint1_linear_508_187" x1="33" y1="0" x2="33" y2="64.5" gradientUnits="userSpaceOnUse"><stop stop-color="#fff"/><stop offset="1" stop-color="#fff" stop-opacity="0"/></linearGradient></defs></svg>
